X: 154
T: Return to Corofin (reel)
N: 180057
C: BB
N: revised 1/9/07
R: reel
Q: 380
M: 4/4
L: 1/8
K: D
"D"FGAB AFDF | "G"GABc "D"d3 A | "Bm"F2 BF dFBF | "G"GBBd "A"cAGE |
"D"FGAB AFDF | "G"GABc "D"d3 e| "Bm"fdgf "Em"edBd | "A"cAGE "D"FD D2 :|
"D"fdfa "G"gabg | "Bm"afdB "A"BA A2 | "D"FGAB AFDF | "G"GABc "D"d3 e |
"D"fdfa "G"gb ~b2 |"Bm"afdB "A"BA A2 |"G"Bggf "Em"edBd |"A7"cAGE "D"FDD2 :|
%%%%%%%%%%%%%%%%%%%%%%%%%%%%%%%%%%%%%%%%%%%%%
